X: 10171
Q: "Pompously."
M: C
L: 1/16
K: C
{E}c4G3G {E}c4G3G | c3cd3d e8 |\
d3de3d c4A3A | B3Bc3c d8 |\
{E}c4G3G {E}c4G3G | c3cd3d e8 |\
d3de3f g6c2 | e4Td3c c4 :|
|: z4 |\
~e3fg4 ~e3fg4 | a3b c'3a g4e4 |\
e3fg4 e3fg3e | (fa)g.f (eg).f.e (e4d4) |\
e3fg4 e3fg4 | a3b c'3a (g4e4) |\
g8- g3fe3d | c4TB4 c4 :|


